X: 1
T: Paddy From Portlaw
M: 6/8
L: 1/8
R: jig
K: Dmaj
dB|:AFD ~D3|AFD DdB|ABd DFA|BGE ~E2B|
  AFD ~F2E| DFA {B}Ade| fdB ABG |1FGE D2B:|2FGE D2a||
  {b}afd dcd|afd d2f|afd Adf|~g3 efg|
  fga ~g2b|afd ede|fdB ABG|1 FGE D2a:|2FGE D2|]
